dist/img/Logo_text.svg

<svg width="709" height="128" viewBox="0 0 709 128" fill="none" xmlns="http://www.w3.org/2000/svg">
<g id="Logo text" clip-path="url(#clip0_52_166)">
<path id="Vector" d="M95.9729 127.963L57.4007 63.4948H27.4916V127.963H23.5355V0.0912189H58.8659C63.5546 0.0912189 68.2983 0.513298 73.097 1.35746C77.8956 2.20161 82.1997 3.79817 85.991 6.14713C89.7823 8.49609 92.8776 11.7076 95.2769 15.7999C97.6762 19.8922 98.8851 25.1957 98.8851 31.6921C98.8851 37.7113 97.7495 42.7028 95.4601 46.6851C93.1707 50.6489 90.2402 53.8787 86.632 56.3562C83.0239 58.8152 79.0312 60.5953 74.6538 61.678C70.2581 62.7608 65.9723 63.3113 61.7597 63.3113L100.515 127.963H96.0095H95.9729ZM94.8923 31.7104C94.8923 26.1684 93.8117 21.5622 91.6505 17.8919C89.4893 14.2217 86.632 11.3405 83.0972 9.23014C79.544 7.11975 75.4597 5.65165 70.8442 4.80749C66.2104 3.96333 61.5033 3.54125 56.7047 3.54125H27.4916V60.0631H58.6644C70.4412 60.0631 79.4158 57.604 85.6064 52.6676C91.797 47.7311 94.8923 40.7576 94.8923 31.7104Z" fill="white"/>
<path id="Vector_2" d="M84.1413 127.963L45.569 63.4948H15.6599V127.963H11.7038V0.0912189H47.0159C51.7047 0.0912189 56.4483 0.513298 61.247 1.35746C66.0456 2.20161 70.3498 3.79817 74.141 6.14713C77.9323 8.49609 81.0276 11.7076 83.427 15.7999C85.8263 19.8922 87.0351 25.1957 87.0351 31.6921C87.0351 37.7113 85.8995 42.7028 83.6101 46.6851C81.3207 50.6489 78.3902 53.8787 74.7821 56.3562C71.1739 58.8152 67.1812 60.5953 62.8038 61.678C58.4081 62.7608 54.1223 63.3113 49.9097 63.3113L88.6652 127.963H84.1596H84.1413ZM83.0606 31.7104C83.0606 26.1684 81.98 21.5622 79.8188 17.8919C77.6576 14.2217 74.8004 11.3405 71.2655 9.23014C67.7123 7.11975 63.628 5.65165 59.0125 4.80749C54.3787 3.96333 49.6716 3.54125 44.873 3.54125H15.6599V60.0631H46.8328C58.6096 60.0631 67.5841 57.604 73.7747 52.6676C79.9653 47.7311 83.0606 40.7576 83.0606 31.7104Z" fill="white"/>
<path id="Vector_3" d="M72.4558 127.963L33.8835 63.4952H3.95613V127.963H0V0.110001H35.3304C40.0192 0.110001 44.7629 0.532079 49.5615 1.37624C54.3601 2.22039 58.6643 3.81695 62.4556 6.16591C66.2468 8.51487 69.3421 11.7263 71.7415 15.8187C74.1408 19.911 75.3496 25.2145 75.3496 31.7109C75.3496 37.7301 74.2141 42.7216 71.9246 46.7038C69.6352 50.6677 66.7047 53.8975 63.0966 56.3749C59.4885 58.834 55.4957 60.6141 51.1183 61.6968C46.7226 62.7795 42.4368 63.3301 38.2243 63.3301L76.9797 127.982H72.4741L72.4558 127.963ZM71.3752 31.7109C71.3752 26.1688 70.2945 21.5626 68.1333 17.8924C65.9721 14.2221 63.1149 11.341 59.58 9.23057C56.0268 7.12018 51.9425 5.65208 47.327 4.80792C42.6932 3.96376 37.9862 3.54168 33.1875 3.54168H3.95613V60.0635H35.1473C46.9241 60.0635 55.8986 57.6045 62.0892 52.668C68.2799 47.7315 71.3752 40.758 71.3752 31.7109Z" fill="white"/>
<path id="Vector_4" d="M213.649 127.963V63.6604H127.86V127.963H123.904V0.110001H127.86V60.0635H213.649V0.110001H217.624V127.963H213.649Z" fill="white"/>
<path id="Vector_5" d="M201.928 127.945V63.6421H116.12V127.945H112.164V0.0733337H116.12V60.0452H201.928V0.0733337H205.884V127.945H201.928Z" fill="white"/>
<path id="Vector_6" d="M390.888 3.74308V127.999H386.931V3.74308H343.487V0.127886H434.332" fill="white"/>
<path id="Vector_7" d="M402.628 3.70642V127.963H398.672V3.70642H355.228V0.0912189H446.072V3.70642H402.628Z" fill="white"/>
<path id="Vector_8" d="M279.676 71.9735V127.963H275.72V71.9735L231.928 0.110001H236.598L277.881 68.0096" fill="white"/>
<path id="Vector_9" d="M291.252 71.9735V127.963H287.277V71.9735L243.485 0.110001H248.174L289.438 68.0096L330.538 0.110001H335.044L291.252 71.9735Z" fill="white"/>
<path id="Vector_10" d="M696.718 0.0912189V127.944H692.762V4.60563H692.048L635.618 127.944H632.376L576.148 4.60563H575.617V127.944H571.642V0.0912189H578.675L634.189 122.164L689.703 0.0912189" fill="white"/>
<path id="Vector_11" d="M557.374 60.1002V0.146666H561.349V128H557.374V63.7154" fill="white"/>
<path id="Vector_12" d="M459.918 63.6421V127.927H455.944V0.0733337H459.918V60.0269H545.708V0.0733337H549.664V127.927H545.708V63.6421" fill="white"/>
<path id="Vector_13" d="M706.077 0V127.945" stroke="white" stroke-width="5.49462" stroke-miterlimit="10"/>
</g>
<defs>
<clipPath id="clip0_52_166">
<rect width="708.825" height="128" fill="white"/>
</clipPath>
</defs>
</svg>

<svg width="709" height="128" fill="none" xmlns="http://www.w3.org/2000/svg"><g clip-path="url(#a)"><path d="M95.973 127.963 57.4 63.495H27.49v64.468h-3.956V.091h35.33c4.69 0 9.433.422 14.232 1.266 4.799.845 9.103 2.441 12.894 4.79 3.791 2.35 6.887 5.56 9.286 9.653 2.4 4.092 3.608 9.396 3.608 15.892 0 6.02-1.136 11.01-3.425 14.993-2.29 3.964-5.22 7.194-8.828 9.671-3.608 2.46-7.6 4.24-11.978 5.322-4.396 1.083-8.682 1.633-12.894 1.633l38.755 64.652h-4.542Zm-1.08-96.253c0-5.542-1.081-10.148-3.243-13.818-2.16-3.67-5.018-6.551-8.553-8.662-3.553-2.11-7.637-3.578-12.253-4.423a78.682 78.682 0 0 0-14.14-1.266H27.493v56.522h31.172c11.777 0 20.752-2.459 26.942-7.395 6.191-4.937 9.286-11.91 9.286-20.958Z" fill="#fff"/><path d="M84.141 127.963 45.57 63.495H15.66v64.468h-3.955V.091h35.312c4.689 0 9.432.422 14.231 1.266 4.799.845 9.103 2.441 12.894 4.79 3.791 2.35 6.887 5.56 9.286 9.653 2.4 4.092 3.608 9.396 3.608 15.892 0 6.02-1.135 11.01-3.425 14.993-2.29 3.964-5.22 7.194-8.828 9.671-3.608 2.46-7.6 4.24-11.978 5.322-4.396 1.083-8.682 1.633-12.894 1.633l38.755 64.652h-4.524Zm-1.08-96.253c0-5.542-1.081-10.148-3.242-13.818S74.8 11.34 71.266 9.23c-3.554-2.11-7.638-3.578-12.254-4.423a78.682 78.682 0 0 0-14.139-1.266H15.66v56.522h31.173c11.777 0 20.751-2.459 26.942-7.395 6.19-4.937 9.286-11.91 9.286-20.958Z" fill="#fff"/><path d="M72.456 127.963 33.883 63.495H3.956v64.468H0V.11h35.33c4.69 0 9.433.422 14.232 1.266 4.798.844 9.102 2.441 12.894 4.79 3.79 2.349 6.886 5.56 9.285 9.653 2.4 4.092 3.609 9.396 3.609 15.892 0 6.02-1.136 11.01-3.425 14.993-2.29 3.964-5.22 7.194-8.828 9.67-3.608 2.46-7.601 4.24-11.979 5.323-4.395 1.082-8.681 1.633-12.894 1.633l38.756 64.652h-4.506l-.018-.019Zm-1.08-96.252c0-5.542-1.082-10.148-3.243-13.819-2.16-3.67-5.018-6.551-8.553-8.661-3.553-2.11-7.637-3.579-12.253-4.423a78.681 78.681 0 0 0-14.14-1.266H3.957v56.521h31.19c11.777 0 20.752-2.459 26.942-7.395 6.19-4.937 9.286-11.91 9.286-20.957Zm142.273 96.252V63.66H127.86v64.303h-3.956V.11h3.956v59.953h85.789V.11h3.975v127.853h-3.975Z" fill="#fff"/><path d="M201.928 127.945V63.642H116.12v64.303h-3.956V.073h3.956v59.972h85.808V.073h3.956v127.872h-3.956ZM390.888 3.743V128h-3.957V3.743h-43.444V.128h90.845" fill="#fff"/><path d="M402.628 3.706v124.257h-3.956V3.706h-43.444V.091h90.844v3.615h-43.444ZM279.676 71.974v55.989h-3.956v-55.99L231.928.11h4.67l41.283 67.9" fill="#fff"/><path d="M291.252 71.974v55.989h-3.975v-55.99L243.485.11h4.689l41.264 67.9 41.1-67.9h4.506l-43.792 71.864ZM696.718.091v127.853h-3.956V4.606h-.714l-56.43 123.338h-3.242L576.148 4.606h-.531v123.338h-3.975V.091h7.033l55.514 122.073L689.703.091M557.374 60.1V.147h3.975V128h-3.975V63.715m-97.456-.073v64.285h-3.974V.073h3.974v59.954h85.79V.073h3.956v127.854h-3.956V63.642" fill="#fff"/><path d="M706.077 0v127.945" stroke="#fff" stroke-width="5.495" stroke-miterlimit="10"/></g><defs><clipPath id="a"><path fill="#fff" d="M0 0h708.825v128H0z"/></clipPath></defs></svg>
